X:115
T:Zannabal
R:Hanter dro
C:trad
A:Bretagne
O:France
M:3/4
L:1/8
Q:1/4=160
K:C
"Am"ABcdeA|ef "G"g2gg| "Dm"fedc "F"d2|fe "E7"dcB2| "Am"ABcdec|ef "G"g2gg
|"Dm"fedcd2|"F"f2"E7"e4:|
|:"Am"e2fe"F"d2|c2"G"B3c|"E7"dd ed "F"c2|Ac "G"B2G2|"Am"e2fe"F"d2|c2"G"B3c|
"E7"dd ed "F"c2|"G"B2"Am"A4:|
